svgs/solid/diagram-cells.svg

<svg xmlns="http://www.w3.org/2000/svg" viewBox="0 0 512 512"><!--! Font Awesome Pro 6.2.0 by @fontawesome - https://fontawesome.com License - https://fontawesome.com/license (Commercial License) Copyright 2022 Fonticons, Inc. --><path d="M512 160c0 35.3-28.7 64-64 64L64 224c-35.3 0-64-28.7-64-64V96C0 60.7 28.7 32 64 32H448c35.3 0 64 28.7 64 64v64zM448 416V352L64 352v64l384 0zm0 64L64 480c-35.3 0-64-28.7-64-64V352c0-35.3 28.7-64 64-64l384 0c35.3 0 64 28.7 64 64v64c0 35.3-28.7 64-64 64z"/></svg>

<svg xmlns="http://www.w3.org/2000/svg" viewBox="0 0 512 512"><!--! Font Awesome Pro 6.1.2 by @fontawesome - https://fontawesome.com License - https://fontawesome.com/license (Commercial License) Copyright 2022 Fonticons, Inc. --><path d="M512 160C512 195.3 483.3 224 448 224H64C28.65 224 0 195.3 0 160V96C0 60.65 28.65 32 64 32H448C483.3 32 512 60.65 512 96V160zM64 480C28.65 480 0 451.3 0 416V352C0 316.7 28.65 288 64 288H448C483.3 288 512 316.7 512 352V416C512 451.3 483.3 480 448 480H64zM448 416V352H64V416H448z"/></svg>
